X:1
T:Der evangelische Kirchenchor
T:Brich an, du schönes Morgenlicht
T:Max Reger
T:Text: Max von Schenkendorf
T:Brich an, du schönes Morgenlicht
T:Nr. 3 aus Der evangelische Kirchenchor, WoO VI/17 
T:CPDL - Creative Commons Attribution Non Commercial 3.0
C:Max Reger
Z:Max von Schenkendorf
Z:CPDL - Creative Commons Attribution Non Commercial 3.0
%%score [ ( 1 2 ) ( 3 4 ) ]
L:1/8
Q:1/4=90
M:4/4
K:Bb
V:1 treble nm="Sopran\nAlt"
V:2 treble 
V:3 bass nm="Tenor\nBass"
V:4 bass 
V:1
"^Mäßig bewegt"!mf!!<(! B2 | d2 c2!<)! B2 F2 |!>(! G2 A2!>)! B4 | z2!f!!<(! d2 d2 =f2!<)! | %4
w: 1.~Brich|an, du schö- nes|Mor- gen- licht!|Das ist der|
w: 2.~Nun|wird ein Kö- nig|al- ler Welt,|von E- wig-|
w: 3.~Wer|ist noch, wel- cher|sorgt und sinnt?|Hier in der|
 e2 d2!>(! c2 B2 | c6!>)!!mf!!<(! d2 | B2!<)! B2 e2 d2 |!>(! c4!>)! B2 |!p!!<(! F2 | %9
w: al- te Mor- gen|nicht, der|täg- lich wie- der-|keh- ret.|Es|
w: keit zum Heil be-|stellt, ein|zar- tes Kind ge-|bo- ren.|Der|
w: Krip- pe liegt ein|Kind mit|lä- cheln- der Ge-|bär- de.|Wir|
 G2 A2 B2 A2!<)! | G2!>(! G2!>)! F4 | z2!mf!!<(! G2 A2 B2 | c2 B2 A2 A2!<)! |!f! G6!ff!!<(! d2 | %14
w: ist ein Leuch- ten|aus der Fern',|es ist ein|Schim- mer, ist ein|Stern, von|
w: Teu- fel hat sein|al- tes Recht|am gan- zen|mensch- li- chen Ge-|schlecht ver-|
w: grü- ßen dich, du|Ster- nen- held:|Will- kom- men|Hei- land al- ler|Welt, will-|
 f2 B2!<)! e2 d2 |[Q:1/4=88]"^poco rit." c4 !fermata!B2 |] %16
w: dem ich längst ge-|hö- ret.|
w: spielt schon und ver-|lo- ren.|
w: kom- men auf der|Er- de.|
V:2
 G2 | B2 G2 G2 F2 | E2 E2 D4 | x2 ^F2 G2 A2 | G2 F2 G2 G2 | A6 BA | G2 F2 GA B2 | (B2 A2) F2 | D2 | %9
 =E2 ^F2 G2 =F2 | F2 =E2 C4 | x2 B,2 D2 D2 | _E2 D2 E2 DC | =B,6 G2 | A2 G2 GA B2 | (B2 A2) F2 |] %16
V:3
 D2 | F2 E2 D2 B,2 | B,2 C2 F,4 | z2 A,2 B,2 C2 | B,C D2 E2 D2 | F6 F2 | E2 F2 E2 F2 | (G2 FE) D2 | %8
 A,2 | C2 C2 D2 C2 | D2 CB, A,4 | z2 G,2 ^F,2 G,2 | ^F,2 G,2 G,2 F,2 | D,6 _B,2 | CD E2 E2 F2 | %15
 (G2 FE) D2 |] %16
V:4
 G,2 | D,2 E,F, G,2 D,2 | E,D, C,2 B,,4 | x2 D,2 G,2 =F,2 | G,A, B,2 E,2 G,2 | F,6 B,,2 | %6
 E,2 D,2 C,2 D,2 | (E,2 F,2) B,,2 | D,2 | C,B,, A,,2 G,,2 A,,2 | B,,2 C,2 [F,,F,]4 | %11
 x2 _E,2 D,C, B,,2 | A,,2 B,,2 C,2 D,2 | G,,6 G,2 | F,2 E,D, C,2 D,2 | %15
 (E,2 F,2) !fermata![B,,F,]2 |] %16

